res/icons/CLIPBOARD.svg

<svg xmlns="http://www.w3.org/2000/svg" viewBox="0 0 24 24">
    <g>
        <path fill="none" d="M0 0h24v24H0z"/>
        <path d="M7 4V2h10v2h3.007c.548 0 .993.445.993.993v16.014a.994.994 0 0 1-.993.993H3.993A.994.994 0 0 1 3 21.007V4.993C3 4.445 3.445 4 3.993 4H7zm0 2H5v14h14V6h-2v2H7V6zm2-2v2h6V4H9z"/>
    </g>
</svg>

<?xml version="1.0" encoding="UTF-8" standalone="no"?>
<svg
   viewBox="0 0 24 24"
   version="1.1"
   id="svg8"
   sodipodi:docname="CLIPBOARD.svg"
   inkscape:version="1.1.1 (3bf5ae0d25, 2021-09-20)"
   xmlns:inkscape="http://www.inkscape.org/namespaces/inkscape"
   xmlns:sodipodi="http://sodipodi.sourceforge.net/DTD/sodipodi-0.dtd"
   xmlns="http://www.w3.org/2000/svg"
   xmlns:svg="http://www.w3.org/2000/svg">
  <defs
     id="defs12" />
  <sodipodi:namedview
     id="namedview10"
     pagecolor="#ffffff"
     bordercolor="#666666"
     borderopacity="1.0"
     inkscape:pageshadow="2"
     inkscape:pageopacity="0.0"
     inkscape:pagecheckerboard="0"
     showgrid="false"
     inkscape:zoom="33.833333"
     inkscape:cx="11.985222"
     inkscape:cy="12.014778"
     inkscape:window-width="1920"
     inkscape:window-height="1001"
     inkscape:window-x="-9"
     inkscape:window-y="-9"
     inkscape:window-maximized="1"
     inkscape:current-layer="svg8" />
  <path
     fill="none"
     d="M 0,0 H 24 V 24 H 0 Z"
     id="path2" />
  <path
     d="M 7,4 V 2 h 10 v 2 h 3.007 C 20.555,4 21,4.445 21,4.993 V 21.007 A 0.994,0.994 0 0 1 20.007,22 H 3.993 A 0.994,0.994 0 0 1 3,21.007 V 4.993 C 3,4.445 3.445,4 3.993,4 Z M 7,6 H 5 V 20 H 19 V 6 H 17 V 8 H 7 Z M 9,4 v 2 h 6 V 4 Z"
     id="path4"
     style="fill:#5f8dd3;fill-opacity:1" />
</svg>
